!!!COM: Palestrina, Giovanni Perluigi da
!!!OPR: Missa In minoribus duplicibus
!!!OTL: Gloria
**kern	**kern	**kern	**kern
*Ibass	*Itenor	*Icalto	*Icant
!Bassus	!Tenor	!Altus	!Cantus
*clefF4	*clefGv2	*clefG2	*clefG2
*k[]	*k[]	*k[]	*k[]
*?:X	*?:X	*?:X	*?:X
*M4/2	*M4/2	*M4/2	*M4/2
=1	=1	=1	=1
0r	1d	0r	1r
.	[1f	.	1a
=2	=2	=2	=2
1A	2f]	1a	1cc
.	4e	.	.
.	4d	.	.
1c	2e	1g	1cc
.	[2g	.	.
=3	=3	=3	=3
1B-	2g]	1b-	1dd
.	2.f	.	.
2.F	.	1a	[1ff
.	4e	.	.
.	[2d	.	.
4G	.	.	.
=4	=4	=4	=4
2A	2d]	1a	2ff]
2A	2c	.	2ee
4D	1f	[1a	1dd
4E	.	.	.
4F	.	.	.
4G	.	.	.
=5	=5	=5	=5
2A	2e	2a]	2cc
1B-	4d	2g	1dd
.	4c	.	.
.	4d	1f	.
.	4e	.	.
2A	[2f	.	2cc
=6	=6	=6	=6
2G	2f]	2.g	1b-
2G	2e	.	.
.	.	4g	.
[1F	2f	1c	1a
.	2f	.	.
=7	=7	=7	=7
1F]	2d	1f	1r
.	2c	.	.
1r	2B-	1d	1b-
.	[2f	.	.
=8	=8	=8	=8
1r	4f]	1c	1g
.	8e	.	.
.	8d	.	.
.	2e	.	.
1B-	1f	1d	1f
=9	=9	=9	=9
1G	1r	1e	1g
[1F	2r	2.f	2.a
.	[2f	.	.
.	.	4g	4b-
=10	=10	=10	=10
2F]	2f]	2a	4cc
.	.	.	4a
2G	2d	4g	2.b-
.	.	4f	.
1A	2c	2e	.
.	.	.	4a
.	2c	[2f	[2a
=11	=11	=11	=11
1B-	1d	2f]	2a]
.	.	4e	2g
.	.	4d	.
1A	1e	1c#	1a
=12	=12	=12	=12
1D	1f#	2r	1a
.	.	2d	.
1G	1g	2d	1b-
.	.	2e	.
=13	=13	=13	=13
1F	1c	1.f	1a
[1C	[1c	.	1g
.	.	4e	.
.	.	4d	.
=14	=14	=14	=14
1C]	1c]	1e	1g
1r	1r	[1f	1a
=15	=15	=15	=15
1C	1c	2f]	1.g
.	.	2e	.
1D	1A	[1d	.
.	.	.	2f#
=16	=16	=16	=16
2G	2B	2d]	2g
2C	2c	2e	2g
1G	1B	1d	1g
=17	=17	=17	=17
1F	1c	1f	1a
[1F	2r	[1a	[1cc
.	[2f	.	.
=18	=18	=18	=18
1F]	2f]	1a]	1cc]
.	2e	.	.
1G	1d	1g	1b
=19	=19	=19	=19
1A	1c	2f	1cc
.	.	2e	.
1B-	2r	4d	1dd
.	.	4e	.
.	[2f	4f	.
.	.	4g	.
=20	=20	=20	=20
1c	2f]	2a	1cc
.	2e	4g	.
.	.	4f	.
1G	1d	2.g	1b-
.	.	4f	.
=21	=21	=21	=21
0A	2c	2e	0a
.	2.d	2d	.
.	.	1e	.
.	4c	.	.
.	2c	.	.
=22	=22	=22	=22
1G	1d	1g	1b-
2D	2d	2f#	2a
2G	2d	2g	2b-
=23	=23	=23	=23
1.F	2f	2.a	2.cc
.	4e	.	.
.	4d	4g	4b-
.	1c	2f	2a
2C	.	2e	2g
=24	=24	=24	=24
1D	2A	2.d	2.f
.	2.f	.	.
.	.	4e	4g
2.D	.	[1f	2a
.	4e	.	.
.	[2d	.	[2b-
4E	.	.	.
=25	=25	=25	=25
1F	2d]	2f]	4b-]
.	.	.	4a
.	2c	2e	1a
1G	1B-	1d	.
.	.	.	2g
=26	=26	=26	=26
2r	1A	2e	1a
1F	.	2c	.
.	2A	2d	1r
2G	2B-	[2e	.
=27	=27	=27	=27
1A	1c	2e]	1r
.	.	2.f	.
[1B-	[1d	.	[1f
.	.	4e	.
.	.	4d	.
.	.	4c	.
=28	=28	=28	=28
2B-]	2d]	2B-	2f]
2G	2e	2B-	2g
1F	2.f	1c	1a
.	4e	.	.
=29	=29	=29	=29
2.G	4d	2.B-	1.b-
.	4c	.	.
.	4B-	.	.
4A	4A	4c	.
2B-	2G	2d	.
2c	[2c	2e	2g
=30	=30	=30	=30
2A	4c]	2f	1f
.	4F	.	.
2B-	2.f	1d	.
1G	.	.	1g
.	8e	.	.
.	8d	.	.
.	2e	4c	.
.	.	4B-	.
=31	=31	=31	=31
0F	2f	1c	0a
.	2c	.	.
.	2d	2r	.
.	[2f	2c	.
=32	=32	=32	=32
0r	4f]	2d	1f
.	4e	.	.
.	2d	1f	.
.	1c	.	1g
.	.	2e	.
=33	=33	=33	=33
1r	2G	2d	1b-
.	2B-	2d	.
2r	1F	2c	1a
2F	.	4f	.
.	.	4e	.
=34	=34	=34	=34
2G	1r	4d	1b-
.	.	4c	.
1B-	.	2d	.
.	2r	4c	[1cc
.	.	4d	.
2A	2c	4e	.
.	.	4f	.
=35	=35	=35	=35
2G	1d	1g	2cc]
2G	.	.	2b
2F	1f	2a	2cc
[2B-	.	2d	2dd
=36	=36	=36	=36
4B-]	2d	2f	4dd
4A	.	.	4cc
4G	2.d	1g	1b-
4F	.	.	.
2G	.	.	.
.	4d	.	.
2A	2c#	[2f	[2a
=37	=37	=37	=37
1B-	1.d	2f]	2a]
.	.	4e	2g
.	.	4d	.
1A	.	1e	1a
.	2c#	.	.
=38	=38	=38	=38
2r	2r	1.g	1.b-
1G	1d	.	.
2C	2c	2e-	2g
=39	=39	=39	=39
1D	2A	1d	1f
.	2.d	.	.
1G	.	4B-	1g
.	4c	4c	.
.	2B-	4d	.
.	.	4e	.
=40	=40	=40	=40
2F	2c	0f	1a
2.D	4d	.	.
.	4e	.	.
.	4f	.	1a
4E	4g	.	.
4F	[2a	.	.
4G	.	.	.
=41	=41	=41	=41
2.A	4a]	2e	1.cc
.	4g	.	.
.	2f	2a	.
4B-	.	.	.
2c	2e	2g	.
2d	[2f	2f	2b
=42	=42	=42	=42
1c	2f]	1g	0cc
.	2e	.	.
1F	[1f	1a	.
=43	=43	=43	=43
2r	1f]	2.cc	1a
1F	.	.	.
.	.	4b-	.
.	1r	2a	2.cc
2E	.	2g	.
.	.	.	4b-
=44	=44	=44	=44
1F	0c	1f	4a
.	.	.	4g
.	.	.	2f
4C	.	1e	2g
4D	.	.	.
4E	.	.	4g
4F	.	.	4a
=45	=45	=45	=45
1G	1B-	2.d	4b-
.	.	.	4cc
.	.	.	2.dd
.	.	4e	.
1r	1A	4f	.
.	.	4e	4cc
.	.	4e	[2cc
.	.	8d	.
.	.	8c	.
=46	=46	=46	=46
2r	1G	2d	2cc]
2G	.	2g	2b
2.A	1c	2f	1cc
.	.	2e	.
4G	.	.	.
=47	=47	=47	=47
2F	2r	2a	1cc
2E	2e	2g	.
1D	2.f	2.a	2.dd
.	4e	4g	4cc
=48	=48	=48	=48
0r	2d	2f	2b-
.	2c	2e	2a
.	2B	2d	1g
.	2c	2e	.
=49	=49	=49	=49
1r	2F	1f	1a
.	1f	.	.
1B-	.	1r	1b-
.	2d	.	.
=50	=50	=50	=50
2c	2e	0r	2g
2d	2.f	.	2f
1c	.	.	1g
.	8e	.	.
.	8d	.	.
.	2e	.	.
=51	=51	=51	=51
1F	2f	2r	1a
.	1f	1a	.
1r	.	.	1cc
.	2e	2g	.
=52	=52	=52	=52
0r	2d	2f	2b-
.	4c	4e	1cc
.	4B-	4d	.
.	2A	4e	.
.	.	4f	.
.	2G	[2g	2b-
=53	=53	=53	=53
0r	1d	2g]	1a
.	.	2f#	.
.	1G	1g	1b
=54	=54	=54	=54
[0F	1r	1.a	1.cc
.	[1c	.	.
.	.	2g	2b-
=55	=55	=55	=55
0F]	2c]	2f	2a
.	2B-	4e	2g
.	.	4d	.
.	2.A	2c	1f
.	.	[2f	.
.	8G	.	.
.	8F	.	.
=56	=56	=56	=56
0C	0c	2f]	1g
.	.	4e	.
.	.	4d	.
.	.	2.e	2.g
.	.	4f	4a
=57	=57	=57	=57
2.G	2.B-	1g	4b-
.	.	.	4cc
.	.	.	1dd
4A	4c	.	.
2B-	4d	2.f	.
.	4e	.	.
4A	[2f	.	4cc
4G	.	4g	4b-
=58	=58	=58	=58
1F	2f]	1a	1cc
.	4e	.	.
.	4d	.	.
1G	2e	1g	1b-
.	[2d	.	.
=59	=59	=59	=59
0A	2d]	2f	[0a
.	4c#	4e	.
.	4B	4d	.
.	1c#	1e	.
=60	=60	=60	=60
1D	2d	2f	0a]
.	2f	2a	.
1r	2d	2f	.
.	2c	2e	.
=61	=61	=61	=61
1B-	4d	1f	0r
.	4e	.	.
.	4f	.	.
.	4d	.	.
2G	2e	2g	.
2F	2f	[2cc	.
=62	=62	=62	=62
1G	2d	2cc]	1r
.	2.g	2b-	.
1A	.	1a	1cc
.	4f	.	.
.	[2f	.	.
=63	=63	=63	=63
1c	2f]	2.g	1cc
.	2e	.	.
.	.	4a	.
2.B-	4f	2b-	1dd
.	4e	.	.
.	4d	2f	.
4A	4c	.	.
=64	=64	=64	=64
1G	4B-	4g	1dd
.	4c	4a	.
.	4d	1b-	.
.	4B-	.	.
1F	1c	.	1ff
.	.	2a	.
=65	=65	=65	=65
1BB-	2B-	1b-	2dd
.	2.B-	.	1dd
2r	.	2r	.
.	4B-	.	.
[2F	2c	[2a	[2cc
=66	=66	=66	=66
4F]	1d	2a]	2cc]
4F	.	.	.
2G	.	1g	2b
1A	2c	.	1cc
.	[2c	2f#	.
=67	=67	=67	=67
1G	4c]	1g	2r
.	4B-	.	.
.	2B-	.	1dd
1r	2A	1a	.
.	2F	.	[2cc
=68	=68	=68	=68
2r	1G	1g	2cc]
1d	.	.	2b
.	1A	2f	1cc
[2c	.	2e	.
=69	=69	=69	=69
2c]	1G	2.g	1dd
2B	.	.	.
.	.	4f	.
1c	2r	4e	2.cc
.	.	4d	.
.	2g	2e	.
.	.	.	4b-
=70	=70	=70	=70
1d	2f	1f	4a
.	.	.	8g
.	.	.	8a
.	2d	.	2.b-
2c	2e	2e	.
.	.	.	4a
2A	[2f	2c	[2a
=71	=71	=71	=71
1B-	4f]	1d	2a]
.	4e	.	.
.	1d	.	2g
1A	.	1e	[1a
.	2c#	.	.
=72	=72	=72	=72
1r	4d	2f	0a]
.	4e	.	.
.	4f	1d	.
.	4d	.	.
1A	2.e	.	.
.	.	[2c	.
.	4f	.	.
=73	=73	=73	=73
1G	1g	2c]	2r
.	.	2B-	1dd
1F	1r	2A	.
.	.	[2a	[2cc
=74	=74	=74	=74
1G	2r	2a]	2cc]
.	1d	2.g	2b
1A	.	.	1cc
.	.	4f	.
.	[2c	4f	.
.	.	4e	.
=75	=75	=75	=75
2.G	2c]	1.g	1dd
.	2B	.	.
4F	.	.	.
2E	1c	.	1cc
2F	.	2a	.
=76	=76	=76	=76
4BB-	1d	2f	1b-
4C	.	.	.
4D	.	2.f	.
4E	.	.	.
1F	1c	.	1a
.	.	4g	.
.	.	[2a	.
=77	=77	=77	=77
1G	2.B-	2a]	1dd
.	.	4g	.
.	4A	4f	.
2G	1B-	1g	2dd
2G	.	.	2ee
=78	=78	=78	=78
0D	1A	[0a	0ff
.	1d	.	.
=79	=79	=79	=79
0A	0c#	0a]	0ee
=80	=80	=80	=80
0r	0r	1r	0ff
.	.	[1b-	.
=81	=81	=81	=81
0r	0r	1b-]	1dd
.	.	1g	1ee
=82	=82	=82	=82
0r	0r	1a	2ee
.	.	.	2ee
.	.	2a	2.ff
.	.	2a	.
.	.	.	4ee
=83	=83	=83	=83
0r	0r	1b-	4dd
.	.	.	4cc
.	.	.	2dd
.	.	2.g	2b-
.	.	.	[2dd
.	.	4f	.
=84	=84	=84	=84
0r	0r	2g	2dd]
.	.	1a	2cc
.	.	.	1b-
.	.	2g	.
=85	=85	=85	=85
0F	0f	1a	1a
.	.	1a	[1cc
=86	=86	=86	=86
1C	1e	1g	1cc]
1D	1f	2f	1b-
.	.	4e	.
.	.	4d	.
=87	=87	=87	=87
4C	1e	1.g	1cc
4D	.	.	.
4E	.	.	.
4F	.	.	.
1G	[1d	.	1b-
.	.	2f	.
=88	=88	=88	=88
0A	2d]	2.e	0a
.	4c#	.	.
.	4B	4d	.
.	1c#	1e	.
=89	=89	=89	=89
1D	1d	1f	0a
1r	1f	1d	.
=90	=90	=90	=90
1B-	1d	0r	0r
1G	1e	.	.
=91	=91	=91	=91
1A	2e	0r	0r
.	2e	.	.
2A	2.f	.	.
2A	.	.	.
.	4e	.	.
=92	=92	=92	=92
1B-	4d	0r	0r
.	4c	.	.
.	2d	.	.
2.G	2B-	.	.
.	[2d	.	.
4F	.	.	.
=93	=93	=93	=93
2G	2d]	0r	0r
2.A	2c	.	.
.	1B-	.	.
4G	.	.	.
2G	.	.	.
=94	=94	=94	=94
1A	1A	1r	1r
1D	1A	1d	1f
=95	=95	=95	=95
1C	1c	1e	1g
[1BB-	[1d	[1f	[1b-
=96	=96	=96	=96
2BB-]	2d]	2f]	2b-]
2BB-	2d	2f	2b-
1BB-	1d	2f	1b-
.	.	[2g	.
=97	=97	=97	=97
1D	1.d	2g]	1a
.	.	2f#	.
1G	.	1g	2b
.	2e	.	[2cc
=98	=98	=98	=98
1G	2d	1g	2cc]
.	2d	.	2b
1F	[1f	1a	1cc
=99	=99	=99	=99
4D	1f]	1.a	1dd
4E	.	.	.
4F	.	.	.
4G	.	.	.
4A	1e	.	1cc
4B-	.	.	.
2c	.	[2g	.
=100	=100	=100	=100
2G	2d	2g]	2b-
2A	2c	1f	1a
1B-	1d	.	.
.	.	4e	2g
.	.	4d	.
=101	=101	=101	=101
0A	1e	1c#	0a
.	1c	1e	.
=102	=102	=102	=102
0r	1d	2.f	1r
.	.	4g	.
.	1f	1a	1cc
=103	=103	=103	=103
0r	1d	2f	1dd
.	.	2d	.
.	2r	2d	1ff
.	2d	2d	.
=104	=104	=104	=104
0r	2d	4B-	2dd
.	.	4c	.
.	2d	4d	2dd
.	.	4e	.
.	4B-	4f	1dd
.	4c	4e	.
.	4d	4f	.
.	4e	4g	.
=105	=105	=105	=105
0r	4f	2a	2cc
.	8e	.	.
.	8f	.	.
.	2g	1b-	2b-
.	1f	.	1cc
.	.	2a	.
=106	=106	=106	=106
2r	1B-	1b-	1dd
1B-	.	.	.
.	2r	1r	1cc
2A	2c	.	.
=107	=107	=107	=107
1G	1d	2r	1b-
.	.	1b-	.
1F	1f	.	1cc
.	.	2a	.
=108	=108	=108	=108
2r	1B-	2g	1dd
1B-	.	2.f	.
.	2r	.	1cc
.	.	8e	.
.	.	8d	.
2A	[2f	2c	.
=109	=109	=109	=109
1G	2f]	2d	1.b-
.	2e	2e	.
1F	2d	[1f	.
.	2c	.	2a
=110	=110	=110	=110
0C	0c	2f]	0g
.	.	4e	.
.	.	4d	.
.	.	1e	.
=111	=111	=111	=111
1F	2c	2r	0a
.	1d	1f	.
1r	.	.	.
.	2c	2e	.
=112	=112	=112	=112
0r	2.B-	2d	2r
.	.	4d	1b-
.	4A	4c	.
.	2G	4d	.
.	.	4e	.
.	2F	2f	2a
=113	=113	=113	=113
0r	2.c	2e	2g
.	.	2A	2a
.	4d	.	.
.	2e	2c	2g
.	[2f	2d	2f
=114	=114	=114	=114
0r	2f]	1c	1g
.	2e	.	.
.	1f	1r	1a
=115	=115	=115	=115
1F	1f	1a	1cc
1G	1d	2.g	1b
.	.	4f	.
=116	=116	=116	=116
1A	1c	1e	1cc
1B-	2.f	1d	1dd
.	4g	.	.
=117	=117	=117	=117
1c	2a	1e	1cc
.	2g	.	.
2.d	2.f	[1f	2b-
.	.	.	[2a
4c	4e	.	.
=118	=118	=118	=118
2B-	2d	2f]	2a]
2B-	2d	2d	2g
1A	1c#	1e	1a
=119	=119	=119	=119
1A	2r	1a	1ee
.	2c	.	.
1F	2d	1a	1ff
.	[2c	.	.
=120	=120	=120	=120
1G	2c]	1g	1dd
.	2B	.	.
2A	2c	1e	1cc
[2c	2A	.	.
=121	=121	=121	=121
2c]	0G	1.g	1.dd
4B	.	.	.
4A	.	.	.
2B	.	.	.
2B	.	2g	2dd
=122	=122	=122	=122
1c	2r	4g	1ee
.	.	4f	.
.	1g	4e	.
.	.	4d	.
1r	.	1c	[1gg
.	2f	.	.
=123	=123	=123	=123
1.c	2e	1r	2gg]
.	2d	.	2ff
.	2c	[1cc	2ee
2B-	2d	.	2dd
=124	=124	=124	=124
2A	1e	2cc]	0cc
2G	.	2b-	.
2F	2f	2a	.
2E	2g	2g	.
=125	=125	=125	=125
1D	2.a	2f	0dd
.	.	2e	.
.	4g	.	.
1D	4f	2d	.
.	4e	.	.
.	[2d	[2f	.
=126	=126	=126	=126
0G	2d]	2f]	0b-
.	2c	4e	.
.	.	4d	.
.	1B-	1e	.
=127	=127	=127	=127
2F	1c	1f	1a
2.F	.	.	.
.	2.c	1r	1r
8E	.	.	.
8D	.	.	.
2E	.	.	.
.	4B-	.	.
=128	=128	=128	=128
1F	4A	2r	1cc
.	4G	.	.
.	2F	2.f	.
1C	1G	.	2.cc
.	.	8e	.
.	.	8d	.
.	.	2e	.
.	.	.	4b-
=129	=129	=129	=129
1r	2F	2f	4a
.	.	.	4g
.	2.f	2d	2f
2r	.	2c	[1g
.	8e	.	.
.	8d	.	.
[2c	2e	2c	.
=130	=130	=130	=130
4c]	1d	1G	1g]
8B	.	.	.
8A	.	.	.
2B	.	.	.
1c	1e	2r	1g
.	.	[2g	.
=131	=131	=131	=131
1G	2.g	4g]	2.b-
.	.	4f	.
.	.	2.d	.
.	4f	.	4cc
2.B-	2.d	.	[1dd
.	.	4e	.
.	.	[2f	.
4c	4e	.	.
=132	=132	=132	=132
1.d	1.f	2f]	2dd]
.	.	4e	4cc
.	.	4d	4b-
.	.	2f	2a
4c	2e	2g	[2cc
4B-	.	.	.
=133	=133	=133	=133
4A	1e	4c	4cc]
4B-	.	4d	4b-
4c	.	4e	1a
4A	.	4c	.
2B-	1r	2d	.
2c	.	2e	2g
=134	=134	=134	=134
1F	1c	[0f	[0a
1r	1d	.	.
=135	=135	=135	=135
1F	1.f	1f]	1a]
1G	.	1r	1r
.	2e	.	.
=136	=136	=136	=136
1.B-	1d	0r	0r
.	1f	.	.
2A	.	.	.
=137	=137	=137	=137
2G	2e	0r	0r
1B-	1d	.	.
2A	2c	.	.
=138	=138	=138	=138
2G	2B-	0r	0r
2.A	2.c	.	.
4G	4B-	.	.
[2G	4B-	.	.
.	8A	.	.
.	8G	.	.
=139	=139	=139	=139
2G]	1A	0r	1r
2F	.	.	.
2E	2G	.	1cc
2F	[2c	.	.
=140	=140	=140	=140
0D	2c]	1r	1dd
.	4B-	.	.
.	4A	.	.
.	2B-	1f	[1ff
.	2A	.	.
=141	=141	=141	=141
2C	1c	1g	2ff]
2c	.	.	2ee
2.G	1r	[1b-	1dd
4B-	.	.	.
=142	=142	=142	=142
1F	2r	2b-]	1ff
.	1c	2a	.
1r	.	2g	2ee
.	[2G	[2b-	[2dd
=143	=143	=143	=143
0r	4G]	2b-]	2dd]
.	4B-	.	.
.	2F	2a	2cc
.	2G	2g	2b-
.	2F	[2a	[2cc
=144	=144	=144	=144
0r	1G	4a]	4cc]
.	.	4g	4b-
.	.	1g	4b-
.	.	.	8a
.	.	.	8g
.	2d	.	1a
.	[2d	2f#	.
=145	=145	=145	=145
1G	2d]	1g	1g
.	2.g	.	.
2.c	.	2.e	1r
.	4f	.	.
.	2g	.	.
4B-	.	4d	.
=146	=146	=146	=146
2c	2.a	2e	0r
2.d	.	2f	.
.	4g	.	.
.	4f	1d	.
4c	4e	.	.
4B-	2d	.	.
4A	.	.	.
=147	=147	=147	=147
2G	2e	1r	1r
2A	2.f	.	.
2B-	.	2r	1g
.	8e	.	.
.	8d	.	.
2c	2e	[2c	.
=148	=148	=148	=148
1F	1A	2c]	2.cc
.	.	2.f	.
.	.	.	4b-
1r	1r	.	2cc
.	.	4e	.
.	.	2f	[2dd
=149	=149	=149	=149
0r	1G	2.g	4dd]
.	.	.	4cc
.	.	.	4b-
.	.	4f	4a
.	2.c	4e	1g
.	.	4d	.
.	.	4c	.
.	4B-	4d	.
=150	=150	=150	=150
2r	2c	2e	2.a
1D	2.d	2.f	.
.	.	.	4g
.	.	.	2a
.	4c	4e	.
[2G	4B-	4d	[2b-
.	4A	4c	.
=151	=151	=151	=151
2G]	2G	1.d	2b-]
2F#	2A	.	1a
1G	1B-	.	.
.	.	2e	2g
=152	=152	=152	=152
0D	1A	0f	[0a
.	1d	.	.
=153	=153	=153	=153
0A	0c#	0e	0a]
==	==	==	==
*-	*-	*-	*-
!!!CDT: 1525/^1526/-1594/2/2
!!!OCY: Italia
!!!AGN: Mass (Paraphrase)
!!!AST: renaissance, vocal
!!!ASW: Gregorian Mass
!!!PWK: Masses, Book 7
!!!RNB: Cadence finals: C,G,A,D
!!!YOR: Le Opere Complete, v. 23, p. 182
!!!YOO: Rome, Italy: Fratelli Scalera
!!!END: 1992//
!!!EED: John Miller
!!!YEC: Copyright 2000, John Miller
!!!YEN: United States of America
!!!YEM: Rights to all derivative electronic formats reserved.
!!!YEM: Refer to licensing agreement for further details.
!!!YEM: This file must be accompanied by the licensing agreement.
!!!YEM: A copy of the licensing agreement may be found at http://www.music-cog.ohio-state.edu/HumdrumDatabases/Palestrina/license.txt
!!!EMD: converted to Humdrum by Bret Aarden
